svg/color/jup.svg

<?xml version="1.0" encoding="UTF-8" ?>
<!DOCTYPE svg PUBLIC "-//W3C//DTD SVG 1.1//EN" "http://www.w3.org/Graphics/SVG/1.1/DTD/svg11.dtd">
<svg width="250pt" height="250pt" viewBox="0 0 250 250" version="1.1" xmlns="http://www.w3.org/2000/svg">
<g id="#ffffffff">
<path fill="#ffffff" opacity="1.00" d=" M 0.00 0.00 L 120.31 0.00 C 92.20 1.07 64.54 11.86 43.32 30.37 C 17.22 52.61 1.21 86.05 0.00 120.30 L 0.00 0.00 Z" />
<path fill="#ffffff" opacity="1.00" d=" M 131.53 0.00 L 250.00 0.00 L 250.00 118.64 C 249.36 108.89 247.67 99.22 245.05 89.81 C 238.19 89.77 231.32 89.78 224.46 89.79 C 232.60 112.88 232.48 138.77 223.88 161.70 C 214.26 187.91 193.72 209.81 168.25 221.20 C 138.01 235.01 101.27 233.24 72.55 216.49 C 69.32 214.83 66.59 212.24 63.18 210.96 C 53.53 210.69 43.85 210.90 34.19 210.88 C 56.08 234.35 87.35 248.50 119.37 250.00 L 0.00 250.00 L 0.00 130.53 C 0.51 140.56 2.27 150.51 4.95 160.19 C 11.81 160.23 18.68 160.21 25.55 160.21 C 20.21 144.83 18.25 128.24 20.36 112.08 C 23.14 88.45 34.37 65.96 51.48 49.44 C 70.36 30.84 96.52 19.96 123.01 19.55 C 144.37 19.14 165.89 25.33 183.57 37.37 C 184.90 38.17 186.25 39.27 187.91 39.16 C 197.21 39.20 206.52 39.19 215.83 39.13 C 194.14 15.85 163.23 1.82 131.53 0.00 M 125.00 50.78 C 128.82 55.38 132.84 59.81 136.62 64.44 C 141.39 70.22 141.60 79.11 137.17 85.14 C 120.04 109.68 102.92 134.22 85.78 158.75 C 79.84 167.31 69.40 172.39 59.00 171.81 C 42.39 171.81 25.78 171.79 9.16 171.82 C 12.96 181.64 18.19 190.95 24.57 199.32 C 47.04 199.16 69.52 199.33 91.99 199.24 C 104.84 198.83 117.26 192.17 124.71 181.70 C 147.74 148.74 170.74 115.76 193.76 82.80 C 195.57 80.09 198.66 78.15 201.99 78.24 C 214.93 78.15 227.87 78.25 240.81 78.21 C 237.08 68.35 231.80 59.05 225.41 50.67 C 191.95 50.85 158.47 50.65 125.00 50.78 M 163.48 164.60 C 156.19 166.48 150.48 173.43 150.39 181.01 C 149.91 189.17 155.97 197.04 163.92 198.77 C 172.61 201.12 182.34 195.39 184.80 186.80 C 187.32 179.14 183.68 170.20 176.66 166.33 C 172.74 163.95 167.88 163.71 163.48 164.60 Z" />
<path fill="#ffffff" opacity="1.00" d=" M 219.67 206.64 C 237.96 185.67 248.63 158.41 250.00 130.65 L 250.00 250.00 L 130.57 250.00 C 164.53 248.47 197.61 232.56 219.67 206.64 Z" />
</g>
<g id="#39b54aff">
<path fill="#39b54a" opacity="1.00" d=" M 120.31 0.00 L 131.53 0.00 C 163.23 1.82 194.14 15.85 215.83 39.13 C 206.52 39.19 197.21 39.20 187.91 39.16 C 186.25 39.27 184.90 38.17 183.57 37.37 C 165.89 25.33 144.37 19.14 123.01 19.55 C 96.52 19.96 70.36 30.84 51.48 49.44 C 34.37 65.96 23.14 88.45 20.36 112.08 C 18.25 128.24 20.21 144.83 25.55 160.21 C 18.68 160.21 11.81 160.23 4.95 160.19 C 2.27 150.51 0.51 140.56 0.00 130.53 L 0.00 120.30 C 1.21 86.05 17.22 52.61 43.32 30.37 C 64.54 11.86 92.20 1.07 120.31 0.00 Z" />
<path fill="#39b54a" opacity="1.00" d=" M 125.00 50.78 C 158.47 50.65 191.95 50.85 225.41 50.67 C 231.80 59.05 237.08 68.35 240.81 78.21 C 227.87 78.25 214.93 78.15 201.99 78.24 C 198.66 78.15 195.57 80.09 193.76 82.80 C 170.74 115.76 147.74 148.74 124.71 181.70 C 117.26 192.17 104.84 198.83 91.99 199.24 C 69.52 199.33 47.04 199.16 24.57 199.32 C 18.19 190.95 12.96 181.64 9.16 171.82 C 25.78 171.79 42.39 171.81 59.00 171.81 C 69.40 172.39 79.84 167.31 85.78 158.75 C 102.92 134.22 120.04 109.68 137.17 85.14 C 141.60 79.11 141.39 70.22 136.62 64.44 C 132.84 59.81 128.82 55.38 125.00 50.78 Z" />
<path fill="#39b54a" opacity="1.00" d=" M 224.46 89.79 C 231.32 89.78 238.19 89.77 245.05 89.81 C 247.67 99.22 249.36 108.89 250.00 118.64 L 250.00 130.65 C 248.63 158.41 237.96 185.67 219.67 206.64 C 197.61 232.56 164.53 248.47 130.57 250.00 L 119.37 250.00 C 87.35 248.50 56.08 234.35 34.19 210.88 C 43.85 210.90 53.53 210.69 63.18 210.96 C 66.59 212.24 69.32 214.83 72.55 216.49 C 101.27 233.24 138.01 235.01 168.25 221.20 C 193.72 209.81 214.26 187.91 223.88 161.70 C 232.48 138.77 232.60 112.88 224.46 89.79 Z" />
<path fill="#39b54a" opacity="1.00" d=" M 163.48 164.60 C 167.88 163.71 172.74 163.95 176.66 166.33 C 183.68 170.20 187.32 179.14 184.80 186.80 C 182.34 195.39 172.61 201.12 163.92 198.77 C 155.97 197.04 149.91 189.17 150.39 181.01 C 150.48 173.43 156.19 166.48 163.48 164.60 Z" />
</g>
</svg>

<?xml version="1.0" encoding="utf-8"?>
<!-- Generator: Adobe Illustrator 26.0.3, SVG Export Plug-In . SVG Version: 6.00 Build 0)  -->
<svg version="1.1" id="Layer_1" xmlns="http://www.w3.org/2000/svg" xmlns:xlink="http://www.w3.org/1999/xlink" x="0px" y="0px"
	 viewBox="0 0 250 250" style="enable-background:new 0 0 250 250;" xml:space="preserve">
<style type="text/css">
	.st0{fill:#FFFFFF;}
	.st1{fill:#39B54A;}
</style>
<g id="_x23_ffffffff">
	<path class="st0" d="M0,0h120.3c-28.1,1.1-55.8,11.9-77,30.4C17.2,52.6,1.2,86.1,0,120.3V0z"/>
	<path class="st0" d="M219.7,206.6c18.3-21,29-48.2,30.3-76V250H130.6C164.5,248.5,197.6,232.6,219.7,206.6z"/>
</g>
<g id="_x23_39b54aff">
	<path class="st1" d="M120.3,0h11.2c31.7,1.8,62.6,15.9,84.3,39.1c-9.3,0.1-18.6,0.1-27.9,0c-1.7,0.1-3-1-4.3-1.8
		c-17.7-12-39.2-18.2-60.6-17.8C96.5,20,70.4,30.8,51.5,49.4c-17.1,16.5-28.3,39-31.1,62.6c-2.1,16.2-0.2,32.8,5.2,48.1
		c-6.9,0-13.7,0-20.6,0c-2.7-9.7-4.4-19.6-4.9-29.7v-10.2c1.2-34.2,17.2-67.7,43.3-89.9C64.5,11.9,92.2,1.1,120.3,0z"/>
	<path class="st1" d="M125,50.8c33.5-0.1,66.9,0.1,100.4-0.1c6.4,8.4,11.7,17.7,15.4,27.5c-12.9,0-25.9-0.1-38.8,0
		c-3.3-0.1-6.4,1.8-8.2,4.6c-23,33-46,65.9-69,98.9c-7.4,10.5-19.9,17.1-32.7,17.5c-22.5,0.1-44.9-0.1-67.4,0.1
		c-6.4-8.4-11.6-17.7-15.4-27.5c16.6,0,33.2,0,49.8,0c10.4,0.6,20.8-4.5,26.8-13.1c17.1-24.5,34.3-49.1,51.4-73.6
		c4.4-6,4.2-14.9-0.6-20.7C132.8,59.8,128.8,55.4,125,50.8z"/>
	<path class="st1" d="M224.5,89.8c6.9,0,13.7,0,20.6,0c2.6,9.4,4.3,19.1,4.9,28.8v12c-1.4,27.8-12,55-30.3,76
		c-22.1,25.9-55.1,41.8-89.1,43.4h-11.2c-32-1.5-63.3-15.6-85.2-39.1c9.7,0,19.3-0.2,29,0.1c3.4,1.3,6.1,3.9,9.4,5.5
		c28.7,16.8,65.5,18.5,95.7,4.7c25.5-11.4,46-33.3,55.6-59.5C232.5,138.8,232.6,112.9,224.5,89.8z"/>
	<path class="st1" d="M163.5,164.6c4.4-0.9,9.3-0.7,13.2,1.7c7,3.9,10.7,12.8,8.1,20.5c-2.5,8.6-12.2,14.3-20.9,12
		c-7.9-1.7-14-9.6-13.5-17.8C150.5,173.4,156.2,166.5,163.5,164.6z"/>
</g>
</svg>
